public/img/LogoName.svg

<svg width="151" height="54" viewBox="0 0 151 54" fill="none" xmlns="http://www.w3.org/2000/svg">
<path d="M1.6571 45.429C1.6571 41.927 3.95857 39.6469 7.22767 39.6469C10.1135 39.6469 12.2973 41.2731 12.2973 43.82V44.0202H11.0129V43.82C11.0129 41.9098 9.69611 40.8041 7.24285 40.8041C4.45757 40.8041 2.90555 42.3788 2.90555 45.429C2.90555 48.4793 4.45757 50.054 7.24285 50.054C9.69421 50.054 11.0129 48.9482 11.0129 47.038V46.8379H12.2973V47.038C12.2973 49.585 10.1287 51.2111 7.22767 51.2111C3.95857 51.2111 1.6571 48.9311 1.6571 45.429Z" fill="white"/>
<path d="M13.8835 51.0434V42.7639H14.9517V45.0268H15.0352C15.2857 43.7037 16.2192 42.5961 17.9381 42.5961C19.8393 42.5961 20.6741 44.0031 20.6741 45.5453V46.367H19.4902V45.7302C19.4902 44.3233 18.9058 43.6351 17.4714 43.6351C15.8036 43.6351 15.0694 44.6913 15.0694 46.5519V51.0434H13.8854H13.8835Z" fill="white"/>
<path d="M21.6208 46.9046C21.6208 44.3901 23.2885 42.5981 25.941 42.5981C28.3601 42.5981 30.0772 44.005 30.0772 46.4699C30.0772 46.7712 30.0431 47.0228 29.9937 47.2401H22.7383C22.8047 49.1008 23.7553 50.2236 25.941 50.2236C27.8763 50.2236 28.7756 49.503 28.7756 48.2963V48.1781H29.9596V48.2963C29.9596 50.0216 28.2577 51.2131 25.9562 51.2131C23.3037 51.2131 21.6189 49.5373 21.6189 46.9065L21.6208 46.9046ZM22.7383 46.5024H28.9597V46.2507C28.9597 44.5083 27.8592 43.5856 25.9239 43.5856C23.7894 43.5856 22.8218 44.6913 22.7383 46.5024Z" fill="white"/>
<path d="M31.2119 49.0988C31.2119 47.7415 32.3294 47.1543 33.8643 46.9866L37.7842 46.55V45.9133C37.7842 44.3043 37.0841 43.6675 35.2816 43.6675C33.4792 43.6675 32.5798 44.3043 32.5798 45.7627V45.8294H31.3959V45.7627C31.3959 44.0202 32.8303 42.5961 35.3651 42.5961C37.9 42.5961 38.934 44.0374 38.934 45.8637V51.0415H37.8658V48.8129H37.7823C37.2985 50.338 35.847 51.2092 33.9288 51.2092C32.3104 51.2092 31.21 50.439 31.21 49.0969L31.2119 49.0988ZM34.1983 50.2884C36.2 50.2884 37.7842 49.4001 37.7842 47.406V47.3392L34.2324 47.7415C32.9973 47.8597 32.3977 48.1609 32.3977 49.015C32.3977 49.869 32.9479 50.2884 34.1983 50.2884Z" fill="white"/>
<path d="M44.1536 51.0434C42.52 51.0434 41.4689 50.3571 41.4689 48.4126V43.7876H40.0004V42.7658H41.4689V40.7889H42.6699V42.7658H45.939V43.7876H42.6699V48.4793C42.6699 49.6365 43.2372 49.9548 44.4382 49.9548H45.939V51.0434H44.1536Z" fill="white"/>
<path d="M47.2386 41.7097V39.8166H48.4226V41.7097H47.2386ZM47.2386 51.0434V42.7639H48.4226V51.0434H47.2386Z" fill="white"/>
<path d="M53.5112 51.0434L49.5742 42.7639H50.8587L54.1942 49.8691H54.2948L57.6132 42.7639H58.8977L54.9608 51.0434H53.5093H53.5112Z" fill="white"/>
<path d="M59.6472 46.9046C59.6472 44.3901 61.3149 42.5981 63.9674 42.5981C66.3865 42.5981 68.1036 44.005 68.1036 46.4699C68.1036 46.7712 68.0694 47.0228 68.0201 47.2401H60.7647C60.8311 49.1008 61.7817 50.2236 63.9674 50.2236C65.9027 50.2236 66.802 49.503 66.802 48.2963V48.1781H67.9859V48.2963C67.9859 50.0216 66.284 51.2131 63.9826 51.2131C61.3301 51.2131 59.6453 49.5373 59.6453 46.9065L59.6472 46.9046ZM60.7647 46.5024H66.986V46.2507C66.986 44.5083 65.8856 43.5856 63.9503 43.5856C61.8158 43.5856 60.8482 44.6913 60.7647 46.5024Z" fill="white"/>
<path d="M72.3232 45.429C72.3232 41.927 74.6247 39.6469 77.8938 39.6469C80.7797 39.6469 82.9635 41.2731 82.9635 43.82V44.0202H81.679V43.82C81.679 41.9098 80.3622 40.8041 77.909 40.8041C75.1237 40.8041 73.5717 42.3788 73.5717 45.429C73.5717 48.4793 75.1218 50.054 77.909 50.054C80.3603 50.054 81.679 48.9482 81.679 47.038V46.8379H82.9635V47.038C82.9635 49.585 80.7948 51.2111 77.8938 51.2111C74.6247 51.2111 72.3232 48.9311 72.3232 45.429Z" fill="white"/>
<path d="M84.1152 46.9046C84.1152 44.3901 85.9006 42.5981 88.5854 42.5981C91.2701 42.5981 93.0725 44.392 93.0725 46.9046C93.0725 49.4172 91.2872 51.2111 88.5854 51.2111C85.8835 51.2111 84.1152 49.4172 84.1152 46.9046ZM91.9038 46.9046C91.9038 44.9105 90.8527 43.6694 88.5854 43.6694C86.318 43.6694 85.2821 44.9086 85.2821 46.9046C85.2821 48.9006 86.3161 50.1398 88.5854 50.1398C90.8546 50.1398 91.9038 48.9158 91.9038 46.9046Z" fill="white"/>
<path d="M94.6378 51.0434V42.7639H95.706V45.2613H95.7724C96.0058 43.8696 96.9564 42.5961 99.0074 42.5961C100.842 42.5961 101.876 43.7362 102.144 45.3452H102.227C102.461 43.9211 103.445 42.5961 105.513 42.5961C107.581 42.5961 108.782 44.1212 108.782 46.2164V51.0434H107.599V46.3841C107.599 44.5407 106.815 43.6866 105.081 43.6866C103.096 43.6866 102.295 44.8438 102.295 47.038V51.0434H101.112V46.3841C101.112 44.5407 100.345 43.6866 98.6089 43.6866C96.6072 43.6866 95.8237 44.8438 95.8237 47.038V51.0434H94.6397H94.6378Z" fill="white"/>
<path d="M110.716 53.8915V42.7639H111.784V45.0935H111.917C112.283 43.6027 113.518 42.5961 115.469 42.5961C118.038 42.5961 119.504 44.3901 119.504 46.9027C119.504 49.4153 118.053 51.2092 115.434 51.2092C113.617 51.2092 112.298 50.2046 111.915 48.6127H111.898V53.8915H110.714H110.716ZM115.119 50.1207C117.038 50.1207 118.305 49.299 118.305 46.9027C118.305 44.5063 117.021 43.7018 115.154 43.7018C113.103 43.7018 111.902 44.859 111.902 46.9027V47.0533C111.902 49.015 113.186 50.1207 115.121 50.1207H115.119Z" fill="white"/>
<path d="M120.523 49.0988C120.523 47.7415 121.641 47.1543 123.176 46.9866L127.096 46.55V45.9133C127.096 44.3043 126.395 43.6675 124.593 43.6675C122.79 43.6675 121.891 44.3043 121.891 45.7627V45.8294H120.707V45.7627C120.707 44.0202 122.142 42.5961 124.676 42.5961C127.211 42.5961 128.245 44.0374 128.245 45.8637V51.0415H127.177V48.8129H127.094C126.61 50.338 125.158 51.2092 123.24 51.2092C121.622 51.2092 120.521 50.439 120.521 49.0969L120.523 49.0988ZM123.508 50.2884C125.509 50.2884 127.094 49.4001 127.094 47.406V47.3392L123.542 47.7415C122.309 47.8597 121.707 48.1609 121.707 49.015C121.707 49.869 122.257 50.2884 123.508 50.2884Z" fill="white"/>
<path d="M130.196 51.0434V42.7639H131.264V45.3623H131.347C131.63 43.9554 132.799 42.5981 134.85 42.5981C137.168 42.5981 138.32 44.2566 138.32 46.2183V51.0453H137.136V46.3861C137.136 44.676 136.318 43.6885 134.434 43.6885C132.433 43.6885 131.382 44.9124 131.382 47.04V51.0453H130.198L130.196 51.0434Z" fill="white"/>
<path d="M140.303 53.8916V52.803H141.553C142.388 52.803 142.705 52.5514 143.022 51.8651L143.422 51.0262L139.335 42.7639H140.637L143.056 47.69L143.972 49.7184H144.073L144.957 47.6748L147.241 42.7639H148.543L144.073 52.1987C143.471 53.4721 142.705 53.8916 141.337 53.8916H140.303Z" fill="white"/>
<path d="M149.177 51.0434V48.7138H150.645V51.0434H149.177Z" fill="white"/>
<path d="M12.4093 16.509L11.8952 16.4251C10.6353 16.2688 7.28845 15.8513 7.28845 14.0783C7.28845 12.7648 9.22752 12.0652 10.6259 12.0652C13.2461 12.0652 15.5513 13.1957 17.2798 14.1965L20.363 10.1455C17.3386 7.91497 14.3978 6.91983 10.8422 6.91983C8.6052 6.91983 1.30806 7.446 1.30806 14.2061C1.30806 16.6806 2.37056 18.4783 4.55629 19.7041C6.40998 20.7431 8.66212 21.1339 10.3071 21.4199L10.4949 21.4523C10.6733 21.4828 10.8953 21.5133 11.1514 21.5476C12.6864 21.7554 15.2553 22.1024 15.2553 23.677C15.2553 25.0439 13.7242 26.0353 11.6163 26.0353C10.5291 26.0353 9.36413 25.8503 8.15173 25.4862C7.50854 25.2937 6.84258 25.1945 6.17471 25.1945C4.14457 25.1945 2.19221 26.1306 0.928589 27.7014C3.95863 30.0711 7.48198 31.2226 11.7016 31.2226C14.7317 31.2226 17.0996 30.5591 18.7426 29.2533C20.3687 27.9588 21.1921 26.0982 21.1921 23.7209C21.1921 18.0074 16.3216 17.1743 12.4093 16.5071V16.509Z" fill="white"/>
<path d="M26.8765 0.703064C25.0437 0.703064 23.5524 2.12524 23.5524 3.87149C23.5524 5.61775 25.0437 7.08377 26.8765 7.08377C26.9638 7.08377 27.051 7.07996 27.1383 7.07424C28.5329 6.96939 29.7225 5.94756 30.0337 4.59021C30.2481 3.65417 30.0299 2.68762 29.436 1.93841C28.8137 1.15297 27.8802 0.703064 26.8765 0.703064Z" fill="white"/>
<path d="M23.9337 30.948H29.8856V9.55066C26.5957 9.66695 23.9337 12.2253 23.9337 15.2946V30.95V30.948Z" fill="white"/>
<path d="M124.804 0.703064C122.971 0.703064 121.479 2.12524 121.479 3.87149C121.479 5.61775 122.971 7.08377 124.804 7.08377C124.891 7.08377 124.978 7.07996 125.065 7.07424C126.46 6.96939 127.65 5.94756 127.961 4.59021C128.175 3.65417 127.957 2.68762 127.363 1.93841C126.741 1.15297 125.807 0.703064 124.804 0.703064Z" fill="white"/>
<path d="M121.861 30.948H127.813V9.55066C124.523 9.66695 121.861 12.2253 121.861 15.2946V30.95V30.948Z" fill="white"/>
<path d="M84.8401 6.92172C80.4705 6.92172 72.2076 9.45723 72.2076 19.0521C72.2076 21.3036 72.6573 23.3053 73.5434 25.0039C74.3118 26.4775 75.4122 27.73 76.8144 28.729C80.0683 31.0453 83.7795 31.2264 84.8401 31.2264C87.2459 31.2264 89.3614 30.8203 91.1298 30.0215C92.5357 29.3848 93.7272 28.4983 94.6702 27.385C95.9167 25.9132 96.3986 24.4091 96.5485 23.8315H96.3057C93.8828 23.8315 91.4068 24.3481 88.9497 25.3661C87.8663 25.816 86.4832 26.0429 84.8382 26.0429C84.2443 26.0429 79.021 25.9151 78.1463 21.5247L78.0894 21.2368H96.8483C96.8863 20.8041 96.9565 19.8242 96.9565 18.4935C96.7421 10.9004 90.6991 6.92554 84.8401 6.92554V6.92172ZM78.2886 17.1305L78.3171 16.8636C78.5618 14.5721 80.6925 12.1071 84.7984 12.1071C88.0959 12.1071 90.3537 14.5244 90.6327 16.8617L90.6649 17.1305H78.2905H78.2886Z" fill="white"/>
<path d="M110.295 16.509L109.781 16.4232C108.521 16.2669 105.174 15.8494 105.174 14.0764C105.174 12.7629 107.113 12.0633 108.511 12.0633C111.133 12.0633 113.437 13.1938 115.165 14.1946L118.248 10.1435C115.224 7.91305 112.283 6.91791 108.727 6.91791C106.491 6.91791 99.1934 7.44407 99.1934 14.2042C99.1934 16.6787 100.256 18.4764 102.442 19.7022C104.295 20.7412 106.547 21.132 108.191 21.418L108.378 21.4504C108.557 21.4809 108.779 21.5114 109.035 21.5457C110.57 21.7535 113.139 22.1004 113.139 23.6751C113.139 25.042 111.608 26.0333 109.5 26.0333C108.371 26.0333 107.16 25.8351 105.9 25.4443C105.263 25.246 104.605 25.1469 103.942 25.1469C101.895 25.1469 100.026 26.0772 98.8082 27.6995C101.838 30.0711 105.364 31.2225 109.585 31.2225C112.615 31.2225 114.983 30.5591 116.626 29.2532C118.252 27.9588 119.076 26.0982 119.076 23.7209C119.076 18.0055 114.205 17.1743 110.293 16.5071L110.295 16.509Z" fill="white"/>
<path d="M142.217 16.509L141.703 16.4232C140.443 16.2669 137.096 15.8494 137.096 14.0764C137.096 12.7629 139.035 12.0633 140.434 12.0633C143.056 12.0633 145.359 13.1938 147.088 14.1946L150.171 10.1435C147.147 7.91305 144.206 6.91791 140.65 6.91791C138.413 6.91791 131.116 7.44407 131.116 14.2042C131.116 16.6787 132.179 18.4764 134.364 19.7022C136.218 20.7412 138.47 21.132 140.113 21.418L140.301 21.4504C140.479 21.4809 140.701 21.5114 140.957 21.5457C142.492 21.7535 145.061 22.1004 145.061 23.6751C145.061 25.042 143.53 26.0333 141.422 26.0333C140.293 26.0333 139.083 25.8351 137.823 25.4443C137.186 25.246 136.527 25.1469 135.865 25.1469C133.818 25.1469 131.949 26.0772 130.731 27.6995C133.761 30.0711 137.286 31.2225 141.508 31.2225C144.538 31.2225 146.906 30.5591 148.549 29.2532C150.175 27.9588 150.998 26.0982 150.998 23.7209C150.998 18.0055 146.128 17.1743 142.215 16.5071L142.217 16.509Z" fill="white"/>
<path d="M66.0906 0.72403H60.2904V7.01132H57.452V12.1376H60.2904V25.4214C60.2904 27.7052 60.9279 29.1636 62.2959 30.0082C63.4685 30.7326 65.1685 31.0414 67.9784 31.0414C68.7848 31.0414 69.8492 30.969 70.5816 30.8946V25.9838C70.1471 26.0238 69.6974 26.0429 69.2079 26.0429C66.0906 26.0429 66.0906 23.5131 66.0906 22.2968V12.1357H66.3258C68.7658 12.1357 70.7504 10.1321 70.7504 7.66903V7.00942H66.0887V0.72403H66.0906Z" fill="white"/>
<path d="M46.2293 6.59955C44.072 6.59955 41.5561 7.64616 40.1104 9.14459L39.7062 9.56399V7.04183H33.8093V30.948H39.7062V18.2858C39.6493 15.9085 40.173 14.1146 41.2601 12.9555C42.3644 11.7811 43.721 11.6077 44.4325 11.6077C47.5536 11.6077 49.2024 13.3958 49.2024 16.7778V24.4072C49.2024 27.9016 51.9156 30.8127 55.2701 30.9442V16.7778C55.2701 9.92812 52.3121 6.59955 46.2293 6.59955Z" fill="white"/>
</svg>

<svg xmlns="http://www.w3.org/2000/svg" width="151" height="54" fill="none"><path fill="#fff" d="M1.657 45.429c0-3.502 2.302-5.782 5.57-5.782 2.887 0 5.07 1.626 5.07 4.173v.2h-1.284v-.2c0-1.91-1.317-3.016-3.77-3.016-2.785 0-4.337 1.575-4.337 4.625s1.552 4.625 4.337 4.625c2.451 0 3.77-1.106 3.77-3.016v-.2h1.284v.2c0 2.547-2.168 4.173-5.07 4.173-3.268 0-5.57-2.28-5.57-5.782M13.884 51.043v-8.28h1.068v2.264h.083c.25-1.323 1.184-2.43 2.903-2.43 1.901 0 2.736 1.406 2.736 2.948v.822H19.49v-.637c0-1.407-.584-2.095-2.019-2.095-1.667 0-2.402 1.056-2.402 2.917v4.491h-1.186M21.62 46.905c0-2.515 1.668-4.307 4.321-4.307 2.42 0 4.136 1.407 4.136 3.872 0 .301-.034.553-.083.77h-7.256c.067 1.86 1.017 2.984 3.203 2.984 1.935 0 2.835-.721 2.835-1.928v-.118h1.184v.118c0 1.726-1.702 2.917-4.004 2.917-2.652 0-4.337-1.676-4.337-4.306zm1.118-.403h6.222v-.251c0-1.743-1.1-2.665-3.036-2.665-2.135 0-3.102 1.105-3.186 2.916M31.212 49.099c0-1.357 1.117-1.945 2.652-2.112l3.92-.437v-.637c0-1.609-.7-2.245-2.502-2.245-1.803 0-2.702.636-2.702 2.095v.066h-1.184v-.066c0-1.743 1.434-3.167 3.97-3.167 2.534 0 3.568 1.441 3.568 3.268v5.178h-1.068v-2.23h-.084c-.483 1.526-1.935 2.397-3.853 2.397-1.619 0-2.719-.77-2.719-2.112zm2.986 1.19c2.002 0 3.586-.889 3.586-2.883v-.067l-3.552.403c-1.235.118-1.834.419-1.834 1.273s.55 1.273 1.8 1.273M44.154 51.043c-1.634 0-2.685-.686-2.685-2.63v-4.625H40v-1.022h1.469v-1.977h1.2v1.977h3.27v1.022h-3.27v4.691c0 1.157.568 1.476 1.77 1.476h1.5v1.088zM47.239 41.71v-1.893h1.184v1.893zm0 9.333v-8.28h1.184v8.28zM53.511 51.043l-3.937-8.28h1.285l3.335 7.106h.1l3.32-7.105h1.284l-3.937 8.28h-1.452zM59.647 46.905c0-2.515 1.668-4.307 4.32-4.307 2.42 0 4.137 1.407 4.137 3.872 0 .301-.035.553-.084.77h-7.255c.066 1.86 1.017 2.984 3.202 2.984 1.936 0 2.835-.721 2.835-1.928v-.118h1.184v.118c0 1.726-1.702 2.917-4.003 2.917-2.653 0-4.338-1.676-4.338-4.306zm1.118-.403h6.221v-.251c0-1.743-1.1-2.665-3.036-2.665-2.134 0-3.102 1.105-3.185 2.916M72.323 45.429c0-3.502 2.302-5.782 5.57-5.782 2.887 0 5.07 1.626 5.07 4.173v.2H81.68v-.2c0-1.91-1.317-3.016-3.77-3.016-2.785 0-4.337 1.575-4.337 4.625s1.55 4.625 4.337 4.625c2.451 0 3.77-1.106 3.77-3.016v-.2h1.284v.2c0 2.547-2.168 4.173-5.07 4.173-3.268 0-5.57-2.28-5.57-5.782M84.115 46.905c0-2.515 1.786-4.307 4.47-4.307 2.685 0 4.488 1.794 4.488 4.307 0 2.512-1.786 4.306-4.488 4.306-2.701 0-4.47-1.794-4.47-4.306m7.789 0c0-1.995-1.051-3.236-3.319-3.236s-3.303 1.24-3.303 3.236 1.034 3.235 3.303 3.235 3.319-1.224 3.319-3.235M94.638 51.043v-8.28h1.068v2.498h.066c.234-1.391 1.184-2.665 3.235-2.665 1.835 0 2.869 1.14 3.137 2.75h.083c.234-1.425 1.218-2.75 3.286-2.75s3.269 1.525 3.269 3.62v4.827h-1.183v-4.659c0-1.843-.784-2.697-2.518-2.697-1.985 0-2.786 1.157-2.786 3.351v4.005h-1.183v-4.659c0-1.843-.767-2.697-2.503-2.697-2.002 0-2.785 1.157-2.785 3.351v4.005h-1.186M110.716 53.892V42.764h1.068v2.33h.133c.366-1.491 1.601-2.498 3.552-2.498 2.569 0 4.035 1.794 4.035 4.307 0 2.512-1.451 4.306-4.07 4.306-1.817 0-3.136-1.004-3.519-2.596h-.017v5.279h-1.184zm4.403-3.771c1.919 0 3.186-.822 3.186-3.218s-1.284-3.201-3.151-3.201c-2.051 0-3.252 1.157-3.252 3.2v.151c0 1.962 1.284 3.068 3.219 3.068zM120.523 49.099c0-1.357 1.118-1.945 2.653-2.112l3.92-.437v-.637c0-1.609-.701-2.245-2.503-2.245s-2.702.636-2.702 2.095v.066h-1.184v-.066c0-1.743 1.435-3.167 3.969-3.167 2.535 0 3.569 1.441 3.569 3.268v5.178h-1.068v-2.23h-.083c-.484 1.526-1.936 2.397-3.854 2.397-1.618 0-2.719-.77-2.719-2.112zm2.985 1.19c2.001 0 3.586-.889 3.586-2.883v-.067l-3.552.403c-1.233.118-1.835.419-1.835 1.273s.55 1.273 1.801 1.273M130.196 51.043v-8.28h1.068v2.6h.083c.283-1.408 1.452-2.765 3.503-2.765 2.318 0 3.47 1.659 3.47 3.62v4.827h-1.184v-4.659c0-1.71-.818-2.698-2.702-2.698-2.001 0-3.052 1.224-3.052 3.352v4.005h-1.184zM140.303 53.892v-1.089h1.25c.835 0 1.152-.252 1.469-.938l.4-.839-4.087-8.262h1.302l2.419 4.926.916 2.028h.101l.884-2.043 2.284-4.911h1.302l-4.47 9.435c-.602 1.273-1.368 1.693-2.736 1.693zM149.177 51.043v-2.33h1.468v2.33zM12.41 16.509l-.515-.084c-1.26-.156-4.607-.574-4.607-2.347 0-1.313 1.94-2.013 3.338-2.013 2.62 0 4.925 1.13 6.654 2.132l3.083-4.051c-3.024-2.231-5.965-3.226-9.52-3.226-2.238 0-9.535.526-9.535 7.286 0 2.475 1.063 4.272 3.248 5.498 1.854 1.04 4.106 1.43 5.751 1.716l.188.032c.178.03.4.061.656.096 1.535.207 4.104.554 4.104 2.129 0 1.367-1.53 2.358-3.639 2.358-1.087 0-2.252-.185-3.464-.549a6.775 6.775 0 0 0-7.223 2.215c3.03 2.37 6.553 3.522 10.773 3.522 3.03 0 5.398-.664 7.04-1.97 1.627-1.294 2.45-3.155 2.45-5.532 0-5.714-4.87-6.547-8.783-7.214zM26.877.703c-1.833 0-3.325 1.422-3.325 3.168s1.492 3.213 3.325 3.213q.13 0 .261-.01a3.24 3.24 0 0 0 2.896-2.484 3.13 3.13 0 0 0-.598-2.652 3.25 3.25 0 0 0-2.56-1.235M23.934 30.948h5.952V9.551c-3.29.116-5.952 2.674-5.952 5.744V30.95zM124.804.703c-1.833 0-3.325 1.422-3.325 3.168s1.492 3.213 3.325 3.213q.13 0 .261-.01a3.24 3.24 0 0 0 2.896-2.484 3.13 3.13 0 0 0-.598-2.652 3.25 3.25 0 0 0-2.559-1.235M121.861 30.948h5.952V9.551c-3.29.116-5.952 2.674-5.952 5.744V30.95zM84.84 6.922c-4.37 0-12.632 2.535-12.632 12.13 0 2.252.45 4.253 1.335 5.952.769 1.473 1.87 2.726 3.271 3.725 3.254 2.316 6.966 2.497 8.026 2.497 2.406 0 4.521-.406 6.29-1.204 1.406-.637 2.597-1.524 3.54-2.637 1.247-1.472 1.729-2.976 1.879-3.554h-.243c-2.423 0-4.9.517-7.356 1.535-1.084.45-2.467.677-4.112.677-.594 0-5.817-.128-6.692-4.518l-.057-.288h18.76c.037-.433.108-1.413.108-2.743C96.742 10.9 90.699 6.926 84.84 6.926zM78.29 17.13l.028-.267c.245-2.292 2.376-4.757 6.481-4.757 3.298 0 5.556 2.417 5.835 4.755l.032.269H78.289M110.295 16.509l-.514-.086c-1.26-.156-4.607-.574-4.607-2.347 0-1.313 1.939-2.013 3.337-2.013 2.622 0 4.926 1.13 6.654 2.132l3.083-4.052c-3.024-2.23-5.965-3.225-9.521-3.225-2.236 0-9.534.526-9.534 7.286 0 2.475 1.063 4.272 3.249 5.498 1.853 1.04 4.105 1.43 5.749 1.716l.187.032c.179.03.401.061.657.096 1.535.207 4.104.554 4.104 2.13 0 1.366-1.531 2.357-3.639 2.357-1.129 0-2.34-.198-3.6-.589a6.6 6.6 0 0 0-1.958-.297c-2.047 0-3.916.93-5.134 2.553 3.03 2.371 6.556 3.523 10.777 3.523 3.03 0 5.398-.664 7.041-1.97 1.626-1.294 2.45-3.155 2.45-5.532 0-5.715-4.871-6.547-8.783-7.214zM142.217 16.509l-.514-.086c-1.26-.156-4.607-.574-4.607-2.347 0-1.313 1.939-2.013 3.338-2.013 2.622 0 4.925 1.13 6.654 2.132l3.083-4.052c-3.024-2.23-5.965-3.225-9.521-3.225-2.237 0-9.534.526-9.534 7.286 0 2.475 1.063 4.272 3.248 5.498 1.854 1.04 4.106 1.43 5.749 1.716l.188.032c.178.03.4.061.656.096 1.535.207 4.104.554 4.104 2.13 0 1.366-1.531 2.357-3.639 2.357-1.129 0-2.339-.198-3.599-.589a6.6 6.6 0 0 0-1.958-.297c-2.047 0-3.916.93-5.134 2.553 3.03 2.371 6.555 3.523 10.777 3.523 3.03 0 5.398-.664 7.041-1.97 1.626-1.294 2.449-3.155 2.449-5.532 0-5.715-4.87-6.547-8.783-7.214zM66.09.724h-5.8v6.287h-2.838v5.127h2.838V25.42c0 2.284.638 3.743 2.006 4.587 1.172.725 2.872 1.033 5.682 1.033.807 0 1.871-.072 2.604-.146v-4.911c-.435.04-.885.059-1.374.059-3.117 0-3.117-2.53-3.117-3.746V12.136h.235c2.44 0 4.424-2.004 4.424-4.467v-.66H66.09V.724zM46.23 6.6c-2.158 0-4.674 1.046-6.12 2.545l-.404.419V7.042H33.81v23.906h5.897V18.286c-.057-2.378.467-4.171 1.554-5.33 1.104-1.175 2.461-1.348 3.172-1.348 3.122 0 4.77 1.788 4.77 5.17v7.63c0 3.494 2.714 6.405 6.068 6.536V16.778c0-6.85-2.958-10.178-9.04-10.178"/></svg>
